X:1
T:Title
%%score { ( 1 3 ) | ( 2 4 ) }
L:1/8
Q:1/4=100
M:4/4
K:D
V:1 treble nm="Grand Piano"
V:3 treble 
V:2 bass 
V:4 bass 
V:1
 [B,D]>C D>E [B,D]>C D>E | z4 [DB]4 | [=CB]>^G A>B [CA]>G A>B | A2 F2 E2 D2 | %4
w: Camilia~J.~Knight * * * * * * *||||
 [B,D]>C D>E [B,D]>C D>E | z4 [DB]4 | [Ge]2 (3AB=c [DGd]2 (3GAB | z4 [FAd]4 | z4 [DG]4 | %9
w: |||||
 (3FGA A>A [=CD]2 z2 | D>E F>G A>G =c>B | [GB]4 [FA]4 | z4 [DG]4 | (3FGA A>A [=CD]2 z2 | %14
w: |||||
 [DG]>[DFA] [DGB]>[DF=c] [DGd]2 [D^GB]2 | A2- [=CFA-]2 [B,DGA]2 z2 |] %16
w: ||
V:2
 G,,2 [D,G,B,]2 D,,2 [D,G,B,]2 | G,,2 B,>=C [G,,G,]2 D,,2 | F,,2 [D,F,=C]2 D,,2 [D,F,C]2 | %3
 [F,,F,]2 [D,,D,]2 [E,,E,]2 [F,,F,]2 | G,,2 [D,G,B,]2 D,,2 [D,G,B,]2 | z2 [D,G,]2 z4 | %6
 [=C,=C]2 [CE]2 [B,,B,]2 [B,D]2 | [C,C]2 [A,,A,]2 [D,D]2 D,,2 | G,,>F,, G,,>A,, B,,2 D,2 | %9
 z2 [D,F,]2 z4 | B,,2 [D,G,B,]2 B,,2 [D,G,B,]2 | [A,,A,]2 A,2 D,>=C, B,,>A,, | %12
 G,,>F,, G,,>A,, B,,2 D,2 | z2 [D,F,]2 z4 | B,,>D, G,>A, B,2 E,2 | A,,2 [D,,D,]2 [G,,G,]2 z2 |] %16
V:3
 x8 | (3[B,D]EF G>A z2 D,2 | x8 | =C8 | x8 | (3[B,D]EF G>A z2 [D,B,]2 | x8 | [GA]2 [GAe]2 z2 D,2 | %8
 [DBd]3- [DBd]/[DG]/ z2 [G,B,]2 | =C2 z2 z4 | x8 | z2 C2 D2 z2 | [DBd]3- [DBd]/[DG]/ z2 [G,B,]2 | %13
 =C2 z2 z4 | x8 | [CG]2 z2 z4 |] %16
V:4
 x8 | z2 D,2 z4 | x8 | x8 | x8 | G,,2 B,>=C [G,,G,]2 z2 | x8 | x8 | x8 | %9
 A,,2 =C>C D,,>=C, B,,>A,, | x8 | x8 | x8 | A,,2 =C>C D,,>=C, B,,>A,, | x8 | x8 |] %16

